X:31
T:How Can You Lovely Nancy? BC.31
T:Lovely Nancy,aka. BC.31
M:3/4
L:1/8
Q:100
S:Benjamin Cooke MS.circa 1770, F.Kidson Coll.
R:Air
O:England
A:x
Z:vmp.John Bagnall
K:D
{g}f>e  | d2 d2 d>f | e2 e2 e>g | f2 d'a gf | {g}e4 {g}Tf>e | d2 d2d>f | e2 e2 d'b | abafef | d4 :|
|:f>g | a2 a2   d'b | {b}a4 f>g| a2 a2 d'a | {f}e4 {g}f>e| d2 d2 af | e2e2 g>{a}b | abafef | d4 :|
"Var 1" f>e | dAfd {b/}(ag/f/) | eAge {c'}(ba/g/)| fdafd'>f| f2 eb a/g/f/e/|
 dAfd {b/}(ag/f/) | eAge {c'/}(ba/g/)| fd' {b/}(ag/f/) a/g/f/e/ | {e2}d4 :|
|:f>g |afdd'c'b | b2 a2 f>g | a/d/e/f/ g2 a2| b2 c'2 d'>f |
 f2 eb a/g/f/e/| dAfd {b}(ag/f/) | eAge {c'}(ba/g/)| fd' {b}ag/f/ a/g/f/e/ | {e}d4 :|

